X:1
T:Prelude
T:Prelude
T:Op. 40, No. 3
T:A. Lyadov
C:A. Lyadov
%%score { ( 1 4 6 ) | ( 2 3 5 ) }
L:1/8
Q:1/4=52
M:3/4
K:F
V:1 treble nm="Piano" snm="Pno."
V:4 treble 
V:6 treble 
V:2 bass 
V:3 bass 
V:5 bass 
V:1
"_dolce""^Lento" (BA | A4 BA | A4 =cB | A4 x2 | ^G4) (fe | e4 fe | e4 =gf |!<(! e4 x2!<)! | %8
!>(! _e4 e!>)!d |!<(! d4 x2!<)! |!>(! _d4) (dc!>)! | cef=dAd |!<(! d2 c4!<)! | cegfAe | %14
!<(! d2 c4)!<)! |"_cresc." (c2 =Bcd_e) | (d2 ^cd=ef) | (e2- efed |!>(! =cBEG!>)!FD- | %19
 D)(D!<(!AcBA)!<)! |!>(! [GA]6!>)! |!pp! [FA]6- | !fermata![FA]6 |] %23
V:2
 z2 |!ped! (E^C!ped-up!ED) z2 |!ped! (D^C-FE)!ped-up! z2 |!ped! ([A,E]2 D2)!ped-up! z2 | %4
!ped! [E,D]4 x2!ped-up! |[K:treble]!ped! (=B^GB!ped-up!A) z2 |!ped! (A^G-c=B)!ped-up! z2 | %7
!ped! ([E=B]2 A2)!ped-up! z2 |!ped! (G^FB!ped-up!A) z2 |!ped! ([DA]2 G2)!ped-up! z2 | %10
!ped! (FEA!ped-up!G) z2 |!ped! G2 F2 z2!ped-up! |[K:bass] (^F,G,A,G,CB, |!ped! A,4 C,2)!ped-up! | %14
 (^F,G,A,G,CB,) | (B,!ped! A,2 _E DC)!ped-up! | (C!ped! =B,2 F =ED)!ped-up! | %17
!ped! (D^C!ped-up! D2) z2 | z2 z2!ped! (D,F,-!ped-up! | F,6) | z!ped! (A,,E,G,F,E,)!ped-up! | %21
 z!ped! (D,,A,,F,A,,F,!ped-up! | !fermata!D6) |] %23
V:3
 x2 | [F,A,]4 x2 | [E,G,]2 [G,C]2 x2 | F,4 x2 | x6 |[K:treble] [CE]4 x2 | [=B,D]2 [DG]2 x2 | %7
 C4 x2 | C4 x2 | B,4 x2 | B,4 x2 | [A,C]4 x2 |[K:bass] x6 | x6 | x6 | x6 | x6 | x6 | x4 (^G,,2 | %19
 A,,6) | x A,,- A,,4 | x6 | x6 |] %23
V:4
 x2 | x6 | x6 | A^c!<(!defA!<)! |[I:staff +1] (C=B,!>(![I:staff -1]FE)!>)! x2 | x6 | x6 | %7
 e^ga=bc'e | x6 | d^fgabd | x6 | x6 | B4!>(! A!>)!G | [Fc]4 F2 | B4!>(! A!>)!G | [_E^F]3 [FA]3 | %16
 [=F^G]3 [G=B]3 | [=G_B]2 [FA]2 z2 | x4 B,2 | A,D- D4 | (D4 ^C2) | D6 | x6 |] %23
V:5
 x2 | x6 | x6 | x6 | x =B,3 z2 |[K:treble] x6 | x6 | x6 | x ^F3 x2 | x6 | x E3 x2 | x6 | %12
[K:bass] x6 | x6 | x6 | x6 | x6 | x6 | x6 | x6 | x6 | x6 | x6 |] %23
V:6
 x2 | x6 | x6 | x6 | x6 | x6 | x6 | x6 | x6 | x6 | x6 | x6 | E6 | x6 | E6 | x6 | x6 | x6 | x6 | %19
 x6 | x6 | x6 | x6 |] %23

